X:6986
T:Hens march, The
R:Pipe march
R:Jig
O:Scotland
M:6/8
C:Donald MacLeod
K:Hp
|:e| dBBB2A|BGGG2B|BAAA2B|BGGG2B|dBBB2A|BGGG2B|AAA ABd|1e3g2:|2e3e2|\
|:f|geea2g| fddd2f|gee efg|fddd2f|geea2g|fdd def|g2e fed|1e2e:|2e3g2||*
|:e|dBB ABB| GBB ABB| GBB ABB|e3g2e|dBB ABB| GBB ABB| AAA ABd|e3e2:|*
d|eaa a2a|g2e fdd|eaa afd\
|1 e3e2d| eaa a2a|g2e fdd| edB ABd| e3e2d\
:|2 e3g2e| dBB ABB| GBB ABB| AAA ABd| e3e2||**
